X: 13
T:Glencoe Massacre
M:3/4
L:1/4
Q:70
R:Waltz
K:D
T:Chorus
f|"D"f>ed|A2 A|"G"B<GB|"D"A2f|f<ed|A2d|"A"c<e-e-|eze|
"D"f>ed|A2 A|"G"B<GB|"D"A2A|"G"B<GB|"A"c>de|"D"e<d-d-|dz|
T:Verse
A|"D"dfd|"A7"e<ge|"D"f<af|"Bm"dzf|"A"ege|ABe|"D"f>gf|"A"ezA|
"D"ddd|"A"eze|"D"faf|"Bm"d3-|dzB|"G"BGB|"A"c>de|"D"e<d-d-|dz||
